X:18241
T:Vaqueirada (CT 284)
C:Trad.
Z:Cancioneru de Torner 284
M:3/8
L:1/8
Q:2/8=88
W:Los vaqueiros vanse, vanse,
W:las vaqueiras l.loran, l.loran:
W:ay, de m, probe del alma,
W:con quin voi dormir agora!
K:G
GGG|GBc|ddc|edd|d2B|AG2|
ddc|edd|ccA|cBG|A2G|FG2|
